X: 281
M: 2/4
L: 1/16
K: G
dcde d2c2 | BABc B2A2 | G2AB c2(3(Bcd) | TA6 G2 |\
dcde d2c2 | BABc B2g2 | f2ed e2d^c | d6 :|
|: d2 |\
g2d2 B2AG | e2(3(efg) d4 | c2ed c2(3(Bcd) | A4 D4 |\

